data/icons/scalable/actions/adw-gtk3-warning-symbolic.svg

<?xml version="1.0" encoding="UTF-8" standalone="no"?>
<svg height="16px" viewBox="0 0 16 16" width="16px" xmlns="http://www.w3.org/2000/svg" sodipodi:docname="com.github.AdwCustomizerTeam.AdwCustomizer-adw-gtk3-warning-symbolic.svg" inkscape:version="1.2.1 (9c6d41e410, 2022-07-14)" xmlns:inkscape="http://www.inkscape.org/namespaces/inkscape" xmlns:sodipodi="http://sodipodi.sourceforge.net/DTD/sodipodi-0.dtd" xmlns:svg="http://www.w3.org/2000/svg" xmlns:rdf="http://www.w3.org/1999/02/22-rdf-syntax-ns#" xmlns:cc="http://creativecommons.org/ns#" xmlns:dc="http://purl.org/dc/elements/1.1/">
    <sodipodi:namedview pagecolor="#ffffff" bordercolor="#000000" borderopacity="0.25" inkscape:showpageshadow="2" inkscape:pageopacity="0.0" inkscape:pagecheckerboard="0" inkscape:deskcolor="#d1d1d1" showgrid="false" inkscape:zoom="11.297138" inkscape:cx="10.887714" inkscape:cy="7.2584757" inkscape:window-width="1280" inkscape:window-height="731" inkscape:window-x="0" inkscape:window-y="0" inkscape:window-maximized="1" inkscape:current-layer="layer9" showguides="false"/>
    <g inkscape:groupmode="layer" inkscape:label="apps">
        <path d="m 10.3125 9 c -0.72803 0 -1.3125 0.584473 -1.3125 1.3125 v 4.375 c 0 0.728027 0.58447 1.3125 1.3125 1.3125 h 4.375 c 0.72803 0 1.3125 -0.584473 1.3125 -1.3125 v -4.375 c 0 -0.728027 -0.58447 -1.3125 -1.3125 -1.3125 z m 1.3125 0.875 h 1.75 v 2.1875 s 0 0.4375 -0.4375 0.4375 h -0.875 c -0.4375 0 -0.4375 -0.4375 -0.4375 -0.4375 z m 0.4375 3.5 h 0.875 c 0.24267 0 0.4375 0.194824 0.4375 0.4375 v 0.875 c 0 0.242676 -0.19483 0.4375 -0.4375 0.4375 h -0.875 c -0.24267 0 -0.4375 -0.194824 -0.4375 -0.4375 v -0.875 c 0 -0.242676 0.19483 -0.4375 0.4375 -0.4375 z m 0 0" stroke-width="0.875"/>
        <path d="m 6.82422 0.015625 a 1.0001 1.0001 0 0 0 -0.32813 0.119141 l -6 3.5 a 1.0001 1.0001 0 0 0 -0.49609 0.876953 v 6.988281 a 1.0001 1.0001 0 0 0 0.49609 0.863281 l 6 3.5 a 1.0001 1.0001 0 0 0 1.50391 -0.863281 v -6.425781 l 4 -2.333985 v 1.759766 h 2 v -3.5 a 1.0001 1.0001 0 0 0 -0.49609 -0.865234 l -6 -3.5 a 1.0001 1.0001 0 0 0 -0.67969 -0.119141 z m 0.17578 2.140625 l 4.01562 2.341797 l -4.01562 2.341797 l -4.01563 -2.341797 z m -5 4.083984 l 4 2.333985 v 4.683593 l -4 -2.333984 z" stroke-linejoin="round"/>
        <path d="m 6.99996 1 l -5.99996 3.5 l 5.99996 3.499574 l 6.00004 -3.499574 z" opacity="0.3" sodipodi:nodetypes="ccccc"/>
        <path d="m 1 4.5 v 7 l 5.99996 3.5 v -7.000426 z" opacity="0.6" stroke-linejoin="round" stroke-width="2" sodipodi:nodetypes="ccccc"/>
    </g>
</svg>

<svg xmlns="http://www.w3.org/2000/svg" width="16" height="16"><g fill="#2e3436"><path d="M10.313 9C9.584 9 9 9.584 9 10.313v4.374C9 15.416 9.584 16 10.313 16h4.374c.729 0 1.313-.584 1.313-1.313v-4.374C16 9.584 15.416 9 14.687 9zm1.312.875h1.75v2.188s0 .437-.438.437h-.874c-.438 0-.438-.438-.438-.438zm.438 3.5h.874c.243 0 .438.195.438.438v.874a.436.436 0 0 1-.438.438h-.874a.436.436 0 0 1-.438-.438v-.874c0-.243.195-.438.438-.438zm0 0"/><path d="M6.824.016a1 1 0 0 0-.328.119l-6 3.5A1 1 0 0 0 0 4.512V11.5a1 1 0 0 0 .496.863l6 3.5A1 1 0 0 0 8 15V8.574l4-2.334V8h2V4.5a1 1 0 0 0-.496-.865l-6-3.5a1 1 0 0 0-.68-.12zM7 2.156l4.016 2.342L7 6.84 2.984 4.498zM2 6.24l4 2.334v4.684l-4-2.334z"/><path d="M7 1 1 4.5 7 8l6-3.5z" opacity=".3"/><path d="M1 4.5v7L7 15V8z" opacity=".6"/></g></svg>
